X:695
T:Reel 695
M:4/4
K:Dmix
L:1/8
AG|F<DDC A,DDE|FDDF d2cB|ADDC A,CCE|CECE F2:|GF|EDEG AGFG|Addc AGFG|Addc ABcG|ECCB, C2FG|Addc ABcA|EDCE GEFG|Addc ABcA|GECE G2|
